public/images/prototypes-mvps.svg

<svg fill="none" height="169" viewBox="0 0 144 169" width="144" xmlns="http://www.w3.org/2000/svg"><g stroke-width="2"><path d="m72 82.7734-71-39.2512m71 39.2512v84.2266m0-84.2266 71-39.2512m-142 0v84.2268l71 39.251m-71-123.4778 34.2759-19.9358m36.7241 143.4136 71-39.251v-84.2268m0 0-34.276-19.9358" stroke="#000"/><path d="m108.724 18.9901c0-9.93564-16.4423-17.9901-36.7245-17.9901s-36.7241 8.05446-36.7241 17.9901m73.4486 0c0 9.9357-16.4423 17.9902-36.7245 17.9902s-36.7241-8.0545-36.7241-17.9902m73.4486 0v4.5963 18.3003c0 9.9357-16.4423 17.9902-36.7245 17.9902s-36.7241-8.0545-36.7241-17.9902v-18.3003-4.5963" stroke="#40d251"/></g></svg>

<svg width="144" height="169" viewBox="0 0 144 169" fill="none" xmlns="http://www.w3.org/2000/svg">
<path d="M72 82.7734L1 43.5222M72 82.7734V167M72 82.7734L143 43.5222M1 43.5222V127.749L72 167M1 43.5222L35.2759 23.5864M72 167L143 127.749V43.5222M143 43.5222L108.724 23.5864" stroke="black" stroke-width="2"/>
<path d="M108.724 18.9901C108.724 9.05446 92.2817 1 71.9995 1C51.7173 1 35.2754 9.05446 35.2754 18.9901M108.724 18.9901C108.724 28.9258 92.2817 36.9803 71.9995 36.9803C51.7173 36.9803 35.2754 28.9258 35.2754 18.9901M108.724 18.9901V23.5864V41.8867C108.724 51.8224 92.2817 59.8769 71.9995 59.8769C51.7173 59.8769 35.2754 51.8224 35.2754 41.8867V23.5864V18.9901" stroke="#40D251" stroke-width="2"/>
</svg>
